X:1
T:[ID 2-133]
T:[ID 2-133]
T:Bezeichnung standardisiert: Polonaise Polonoise
T:Urheber unbekannt Datum in der hier transkribierten schriftlichen Quelle: 1767
C:Urheber unbekannt
C:Datum in der hier transkribierten schriftlichen Quelle: 1767
L:1/8
M:3/4
K:D
V:1 treble 
V:1
 a3 (3d'/c'/b/{b} a2 | af/a/ g/f/g/e/ f2 | A3 d/c/ B/{B} A2 | AG e/c/A/G/{G} F2 | [A,E]2 gg e/c/d | %5
 [A,E]2 gg e/c/d | D/F/A/d/ f/a/g/b/ Ag | f/e/f/c/{c} d2 D2 :: a3 (3d'/c'/b/{b} a2 | %9
 d/f/a/b/ c'/b/c'/a/{g} b2 | gb/a/ gfed | c/e/d/f/ e/d/c/B/{B} A2 | [A,E]2 gg e/c/d | %13
 [A,E]2 gg e/c/d | D/F/A/d/ f/a/g/b/ A/c/e/g/ | f/e/f/c/{c} d2 D2 :| %16

